bicons/16x16/emblems/lock-key.svg

<?xml version="1.0" encoding="UTF-8" standalone="no"?>
<!-- Created with Inkscape (http://www.inkscape.org/) -->

<svg
   xmlns:dc="http://purl.org/dc/elements/1.1/"
   xmlns:cc="http://creativecommons.org/ns#"
   xmlns:rdf="http://www.w3.org/1999/02/22-rdf-syntax-ns#"
   xmlns:svg="http://www.w3.org/2000/svg"
   xmlns="http://www.w3.org/2000/svg"
   xmlns:xlink="http://www.w3.org/1999/xlink"
   xmlns:sodipodi="http://sodipodi.sourceforge.net/DTD/sodipodi-0.dtd"
   xmlns:inkscape="http://www.inkscape.org/namespaces/inkscape"
   width="210mm"
   height="297mm"
   viewBox="0 0 744.09448819 1052.3622047"
   id="svg2"
   version="1.1"
   inkscape:version="0.91 r13725"
   inkscape:export-xdpi="3.5999997"
   inkscape:export-ydpi="3.5999997"
   sodipodi:docname="lock-key.svg"
   inkscape:export-filename="C:\Users\johannes\Documents\Arbeit\RRZE\github3\bicons\16x16\emblems\lock-key.png">
  <defs
     id="defs4">
    <linearGradient
       id="linearGradient2224">
      <stop
         id="stop2226"
         offset="0"
         style="stop-color:#7c7c7c;stop-opacity:1;" />
      <stop
         id="stop2228"
         offset="1"
         style="stop-color:#b8b8b8;stop-opacity:1;" />
    </linearGradient>
    <linearGradient
       id="linearGradient15218">
      <stop
         id="stop15220"
         offset="0"
         style="stop-color:#eeeeef;stop-opacity:1;" />
      <stop
         id="stop2736"
         offset="0.59928656"
         style="stop-color:#d3d7cf;stop-opacity:1;" />
      <stop
         id="stop2738"
         offset="0.82758623"
         style="stop-color:#ffffff;stop-opacity:1;" />
      <stop
         id="stop15222"
         offset="1"
         style="stop-color:#d3d7cf;stop-opacity:1;" />
    </linearGradient>
    <pattern
       y="0"
       x="0"
       height="6"
       width="6"
       patternUnits="userSpaceOnUse"
       id="EMFhbasepattern" />
    <pattern
       y="0"
       x="0"
       height="6"
       width="6"
       patternUnits="userSpaceOnUse"
       id="EMFhbasepattern-5" />
    <linearGradient
       inkscape:collect="always"
       xlink:href="#linearGradient4157"
       id="linearGradient4163"
       x1="49"
       y1="401.99799"
       x2="329"
       y2="30.149845"
       gradientUnits="userSpaceOnUse"
       gradientTransform="matrix(1,0,0,0.99502983,190.045,322.40265)" />
    <linearGradient
       inkscape:collect="always"
       id="linearGradient4157">
      <stop
         style="stop-color:#4e505d;stop-opacity:1;"
         offset="0"
         id="stop4159" />
      <stop
         style="stop-color:#7a8597;stop-opacity:1"
         offset="1"
         id="stop4161" />
    </linearGradient>
  </defs>
  <sodipodi:namedview
     id="base"
     pagecolor="#ffffff"
     bordercolor="#666666"
     borderopacity="1.0"
     inkscape:pageopacity="0.0"
     inkscape:pageshadow="2"
     inkscape:zoom="1.4142136"
     inkscape:cx="514.22871"
     inkscape:cy="468.34395"
     inkscape:document-units="px"
     inkscape:current-layer="layer1"
     showgrid="false"
     showguides="true"
     inkscape:guide-bbox="true"
     inkscape:window-width="1366"
     inkscape:window-height="721"
     inkscape:window-x="-4"
     inkscape:window-y="-4"
     inkscape:window-maximized="1">
    <sodipodi:guide
       position="560,730.00002"
       orientation="0,1"
       id="guide3338" />
    <sodipodi:guide
       position="560,330.00001"
       orientation="0,1"
       id="guide3340" />
    <sodipodi:guide
       position="190,475.00001"
       orientation="1,0"
       id="guide3344" />
    <sodipodi:guide
       position="590,451.00001"
       orientation="1,0"
       id="guide3346" />
    <inkscape:grid
       type="xygrid"
       id="grid3440" />
  </sodipodi:namedview>
  <metadata
     id="metadata7">
    <rdf:RDF>
      <cc:Work
         rdf:about="">
        <dc:format>image/svg+xml</dc:format>
        <dc:type
           rdf:resource="http://purl.org/dc/dcmitype/StillImage" />
        <dc:title>lock key</dc:title>
        <dc:date>June 2015</dc:date>
        <dc:creator>
          <cc:Agent>
            <dc:title>Johannes Hechler</dc:title>
          </cc:Agent>
        </dc:creator>
        <dc:rights>
          <cc:Agent>
            <dc:title>Johannes Hechler</dc:title>
          </cc:Agent>
        </dc:rights>
        <dc:publisher>
          <cc:Agent>
            <dc:title>RRZE</dc:title>
          </cc:Agent>
        </dc:publisher>
        <dc:contributor>
          <cc:Agent>
            <dc:title>Ute Weber, Hendrik Eggers</dc:title>
          </cc:Agent>
        </dc:contributor>
      </cc:Work>
    </rdf:RDF>
  </metadata>
  <g
     inkscape:label="Ebene 1"
     inkscape:groupmode="layer"
     id="layer1">
    <rect
       style="opacity:1;fill:none;fill-opacity:1;stroke:none;stroke-width:23;stroke-linecap:butt;stroke-linejoin:round;stroke-miterlimit:4;stroke-dasharray:none;stroke-opacity:1"
       id="rect4160"
       width="400"
       height="400"
       x="189.04501"
       y="322.40262" />
    <path
       style="fill:url(#linearGradient4163);fill-opacity:1"
       d="M 391.04297 322.40234 C 356.01697 322.40234 325.94231 334.90418 300.82031 359.9043 C 275.69431 384.90542 263.13672 414.8249 263.13672 449.67383 L 263.13672 498.22266 L 242.00195 498.22266 C 234.39095 498.22266 227.91789 500.87228 222.58789 506.17578 C 217.25789 511.47531 214.59375 517.91595 214.59375 525.49609 L 214.59375 695.13086 C 214.59375 702.70404 217.25889 709.14666 222.58789 714.45117 C 227.91789 719.7497 234.39095 722.40234 242.00195 722.40234 L 339.00195 722.40234 A 25.0025 25.0025 0 0 1 339 722.36133 L 339 673.41602 A 25.0025 25.0025 0 0 1 345.71094 656.37109 L 418.80664 577.94336 C 415.83965 568.48269 414.23633 558.43735 414.23633 548.04492 C 414.23633 529.97032 419.07937 512.94078 427.5293 498.22266 L 315.95312 498.22266 L 315.95312 449.67383 C 315.95312 429.5991 323.09219 410.45792 337.36719 396.25586 C 351.64419 382.05181 370.86986 374.95117 391.04688 374.95117 C 411.22586 374.95117 430.44466 382.05082 444.72266 396.25586 C 458.99366 410.45693 464.95911 429.61612 464.13281 449.67383 L 464.13281 461.27539 C 478.7917 452.69394 495.79005 447.76172 513.88477 447.76172 C 514.90352 447.76172 515.9181 447.7814 516.92969 447.8125 C 516.55746 413.76096 505.9383 384.45725 481.26172 359.9043 C 456.13772 334.90318 426.06997 322.40234 391.04297 322.40234 z M 513.88477 497.76172 C 489.04614 497.76172 468.7151 515.66579 464.89258 539.78711 A 25.0025 25.0025 0 0 1 480.8418 545.2168 L 530.44141 584.73828 A 25.0025 25.0025 0 0 1 536.98438 592.66992 C 552.30146 584.62969 562.8268 568.76062 563.49609 549.95312 L 563.49609 546.61328 C 563.37164 541.95509 562.63982 537.4754 561.38477 533.24414 A 24.5625 24.99836 0 0 1 538.92383 548.16602 A 24.5625 24.99836 0 0 1 514.36133 523.16797 A 24.5625 24.99836 0 0 1 529.31055 500.19141 C 526.517 499.28681 523.61232 498.62302 520.61914 498.22266 L 516.94727 498.22266 L 516.94727 497.86328 C 515.93362 497.80258 514.91474 497.76172 513.88477 497.76172 z M 446.43164 621.64062 L 440.78711 627.69531 A 25.0025 25.0025 0 0 1 443.70898 625.67188 L 448.07812 623.13477 C 447.5245 622.64216 446.97432 622.14522 446.43164 621.64062 z M 435.63086 633.22852 L 389 683.25977 L 389 697.36133 L 389.02539 697.36133 A 25.0025 25.0025 0 0 1 396.30859 680.60352 A 25.0025 25.0025 0 0 1 413.98633 673.28125 L 423.03516 673.28125 L 427.875 667.61719 A 25.0025 25.0025 0 0 1 428.21094 660.83203 L 431.71094 642.58203 A 25.0025 25.0025 0 0 1 435.63086 633.22852 z M 563.49609 634.89062 C 548.9984 643.34516 532.21988 648.23466 514.36133 648.32031 L 514.36133 673.41602 A 25.0025 25.0025 0 0 1 500.54102 695.77734 A 25.0025 25.0025 0 0 1 489.36133 698.41602 L 467.32617 698.41602 L 464.23633 702.0332 L 464.23633 722.36133 A 25.0025 25.0025 0 0 1 464.23438 722.40234 L 536.08594 722.40234 C 543.70294 722.40234 550.16995 719.75269 555.50195 714.45117 C 560.82695 709.14666 563.49609 702.70404 563.49609 695.13086 L 563.49609 634.89062 z "
       id="path5" />
    <path
       style="color:#000000;clip-rule:nonzero;display:inline;overflow:visible;visibility:visible;opacity:1;isolation:auto;mix-blend-mode:normal;color-interpolation:sRGB;color-interpolation-filters:linearRGB;solid-color:#000000;solid-opacity:1;fill:#99b000;fill-opacity:1;fill-rule:evenodd;stroke:none;stroke-width:18;stroke-linecap:butt;stroke-linejoin:miter;stroke-miterlimit:4;stroke-dasharray:none;stroke-dashoffset:0;stroke-opacity:1;color-rendering:auto;image-rendering:auto;shape-rendering:auto;text-rendering:auto;enable-background:accumulate"
       d="M 513.88477 472.76172 A 74.647598 75.282974 0 0 0 439.23633 548.04492 A 74.647598 75.282974 0 0 0 447.98047 583.3125 L 364 673.41602 L 364 722.36133 L 413.98633 722.36133 L 439.23633 722.36133 L 439.23633 698.28125 L 434.55859 698.28125 L 459.02148 669.64844 L 464.76367 673.41602 L 489.36133 673.41602 L 489.36133 648.29102 L 481.2207 643.66602 L 499.80469 621.91602 A 74.647598 75.282974 0 0 0 513.88477 623.32617 A 74.647598 75.282974 0 0 0 588.53125 548.04492 A 74.647598 75.282974 0 0 0 513.88477 472.76172 z M 538.92383 498.16992 A 24.5625 24.99836 0 0 1 563.48633 523.16797 A 24.5625 24.99836 0 0 1 538.92383 548.16602 A 24.5625 24.99836 0 0 1 514.36133 523.16797 A 24.5625 24.99836 0 0 1 538.92383 498.16992 z "
       id="path4231" />
  </g>
</svg>

<?xml version="1.0" encoding="UTF-8" standalone="no"?>
<!-- Created with Inkscape (http://www.inkscape.org/) -->

<svg
   xmlns:dc="http://purl.org/dc/elements/1.1/"
   xmlns:cc="http://creativecommons.org/ns#"
   xmlns:rdf="http://www.w3.org/1999/02/22-rdf-syntax-ns#"
   xmlns:svg="http://www.w3.org/2000/svg"
   xmlns="http://www.w3.org/2000/svg"
   xmlns:xlink="http://www.w3.org/1999/xlink"
   xmlns:sodipodi="http://sodipodi.sourceforge.net/DTD/sodipodi-0.dtd"
   xmlns:inkscape="http://www.inkscape.org/namespaces/inkscape"
   width="210mm"
   height="297mm"
   viewBox="0 0 744.09448819 1052.3622047"
   id="svg2"
   version="1.1"
   inkscape:version="0.91 r13725"
   inkscape:export-xdpi="3.5999997"
   inkscape:export-ydpi="3.5999997"
   sodipodi:docname="lock-key.svg"
   inkscape:export-filename="D:\Dokumente\Arbeit\RRZE\github\bicons\16x16\emblems\lock-key.png">
  <defs
     id="defs4">
    <linearGradient
       id="linearGradient2224">
      <stop
         id="stop2226"
         offset="0"
         style="stop-color:#7c7c7c;stop-opacity:1;" />
      <stop
         id="stop2228"
         offset="1"
         style="stop-color:#b8b8b8;stop-opacity:1;" />
    </linearGradient>
    <linearGradient
       id="linearGradient15218">
      <stop
         id="stop15220"
         offset="0"
         style="stop-color:#eeeeef;stop-opacity:1;" />
      <stop
         id="stop2736"
         offset="0.59928656"
         style="stop-color:#d3d7cf;stop-opacity:1;" />
      <stop
         id="stop2738"
         offset="0.82758623"
         style="stop-color:#ffffff;stop-opacity:1;" />
      <stop
         id="stop15222"
         offset="1"
         style="stop-color:#d3d7cf;stop-opacity:1;" />
    </linearGradient>
    <pattern
       y="0"
       x="0"
       height="6"
       width="6"
       patternUnits="userSpaceOnUse"
       id="EMFhbasepattern" />
    <pattern
       y="0"
       x="0"
       height="6"
       width="6"
       patternUnits="userSpaceOnUse"
       id="EMFhbasepattern-5" />
    <linearGradient
       inkscape:collect="always"
       xlink:href="#linearGradient4157"
       id="linearGradient4163"
       x1="49"
       y1="401.99799"
       x2="329"
       y2="30.149845"
       gradientUnits="userSpaceOnUse"
       gradientTransform="matrix(1,0,0,0.99502983,190.045,322.40265)" />
    <linearGradient
       inkscape:collect="always"
       id="linearGradient4157">
      <stop
         style="stop-color:#4e505d;stop-opacity:1;"
         offset="0"
         id="stop4159" />
      <stop
         style="stop-color:#7a8597;stop-opacity:1"
         offset="1"
         id="stop4161" />
    </linearGradient>
  </defs>
  <sodipodi:namedview
     id="base"
     pagecolor="#ffffff"
     bordercolor="#666666"
     borderopacity="1.0"
     inkscape:pageopacity="0.0"
     inkscape:pageshadow="2"
     inkscape:zoom="4.0000001"
     inkscape:cx="478.97093"
     inkscape:cy="540.34452"
     inkscape:document-units="px"
     inkscape:current-layer="layer1"
     showgrid="false"
     showguides="true"
     inkscape:guide-bbox="true"
     inkscape:window-width="1600"
     inkscape:window-height="837"
     inkscape:window-x="-4"
     inkscape:window-y="-4"
     inkscape:window-maximized="1">
    <sodipodi:guide
       position="560,730.00002"
       orientation="0,1"
       id="guide3338" />
    <sodipodi:guide
       position="560,330.00001"
       orientation="0,1"
       id="guide3340" />
    <sodipodi:guide
       position="190,475.00001"
       orientation="1,0"
       id="guide3344" />
    <sodipodi:guide
       position="590,451.00001"
       orientation="1,0"
       id="guide3346" />
    <inkscape:grid
       type="xygrid"
       id="grid3440" />
  </sodipodi:namedview>
  <metadata
     id="metadata7">
    <rdf:RDF>
      <cc:Work
         rdf:about="">
        <dc:format>image/svg+xml</dc:format>
        <dc:type
           rdf:resource="http://purl.org/dc/dcmitype/StillImage" />
        <dc:title>lock key</dc:title>
        <dc:date>June 2015</dc:date>
        <dc:creator>
          <cc:Agent>
            <dc:title>Johannes Hechler</dc:title>
          </cc:Agent>
        </dc:creator>
        <dc:rights>
          <cc:Agent>
            <dc:title>Johannes Hechler</dc:title>
          </cc:Agent>
        </dc:rights>
        <dc:publisher>
          <cc:Agent>
            <dc:title>RRZE</dc:title>
          </cc:Agent>
        </dc:publisher>
        <dc:contributor>
          <cc:Agent>
            <dc:title>Ute Weber, Hendrik Eggers</dc:title>
          </cc:Agent>
        </dc:contributor>
      </cc:Work>
    </rdf:RDF>
  </metadata>
  <g
     inkscape:label="Ebene 1"
     inkscape:groupmode="layer"
     id="layer1">
    <rect
       style="opacity:1;fill:none;fill-opacity:1;stroke:none;stroke-width:23;stroke-linecap:butt;stroke-linejoin:round;stroke-miterlimit:4;stroke-dasharray:none;stroke-opacity:1"
       id="rect4160"
       width="400"
       height="400"
       x="189.04501"
       y="322.40262" />
    <path
       style="fill:url(#linearGradient4163);fill-opacity:1"
       d="M 391.04297 322.40234 C 356.01697 322.40234 325.94231 334.90418 300.82031 359.9043 C 275.69431 384.90542 263.13672 414.8249 263.13672 449.67383 L 263.13672 498.22266 L 242.00195 498.22266 C 234.39095 498.22266 227.91789 500.87228 222.58789 506.17578 C 217.25789 511.47531 214.59375 517.91595 214.59375 525.49609 L 214.59375 695.13086 C 214.59375 702.70404 217.25889 709.14666 222.58789 714.45117 C 227.91789 719.7497 234.39095 722.40234 242.00195 722.40234 L 339.00195 722.40234 A 25.0025 25.0025 0 0 1 339 722.36133 L 339 673.41602 A 25.0025 25.0025 0 0 1 345.71094 656.37109 L 418.80664 577.94336 C 415.83965 568.48269 414.23633 558.43735 414.23633 548.04492 C 414.23633 529.97032 419.07937 512.94078 427.5293 498.22266 L 315.95312 498.22266 L 315.95312 449.67383 C 315.95312 429.5991 323.09219 410.45792 337.36719 396.25586 C 351.64419 382.05181 370.86986 374.95117 391.04688 374.95117 C 411.22586 374.95117 430.44466 382.05082 444.72266 396.25586 C 458.99366 410.45693 464.95911 429.61612 464.13281 449.67383 L 464.13281 461.27539 C 478.7917 452.69394 495.79005 447.76172 513.88477 447.76172 C 514.90352 447.76172 515.9181 447.7814 516.92969 447.8125 C 516.55746 413.76096 505.9383 384.45725 481.26172 359.9043 C 456.13772 334.90318 426.06997 322.40234 391.04297 322.40234 z M 513.88477 497.76172 C 489.04614 497.76172 468.7151 515.66579 464.89258 539.78711 A 25.0025 25.0025 0 0 1 480.8418 545.2168 L 530.44141 584.73828 A 25.0025 25.0025 0 0 1 536.98438 592.66992 C 552.30146 584.62969 562.8268 568.76062 563.49609 549.95312 L 563.49609 546.61328 C 563.37164 541.95509 562.63982 537.4754 561.38477 533.24414 A 24.5625 24.99836 0 0 1 538.92383 548.16602 A 24.5625 24.99836 0 0 1 514.36133 523.16797 A 24.5625 24.99836 0 0 1 529.31055 500.19141 C 526.517 499.28681 523.61232 498.62302 520.61914 498.22266 L 516.94727 498.22266 L 516.94727 497.86328 C 515.93362 497.80258 514.91474 497.76172 513.88477 497.76172 z M 446.43164 621.64062 L 440.78711 627.69531 A 25.0025 25.0025 0 0 1 443.70898 625.67188 L 448.07812 623.13477 C 447.5245 622.64216 446.97432 622.14522 446.43164 621.64062 z M 435.63086 633.22852 L 389 683.25977 L 389 697.36133 L 389.02539 697.36133 A 25.0025 25.0025 0 0 1 396.30859 680.60352 A 25.0025 25.0025 0 0 1 413.98633 673.28125 L 423.03516 673.28125 L 427.875 667.61719 A 25.0025 25.0025 0 0 1 428.21094 660.83203 L 431.71094 642.58203 A 25.0025 25.0025 0 0 1 435.63086 633.22852 z M 563.49609 634.89062 C 548.9984 643.34516 532.21988 648.23466 514.36133 648.32031 L 514.36133 673.41602 A 25.0025 25.0025 0 0 1 500.54102 695.77734 A 25.0025 25.0025 0 0 1 489.36133 698.41602 L 467.32617 698.41602 L 464.23633 702.0332 L 464.23633 722.36133 A 25.0025 25.0025 0 0 1 464.23438 722.40234 L 536.08594 722.40234 C 543.70294 722.40234 550.16995 719.75269 555.50195 714.45117 C 560.82695 709.14666 563.49609 702.70404 563.49609 695.13086 L 563.49609 634.89062 z "
       id="path5" />
    <path
       style="color:#000000;clip-rule:nonzero;display:inline;overflow:visible;visibility:visible;opacity:1;isolation:auto;mix-blend-mode:normal;color-interpolation:sRGB;color-interpolation-filters:linearRGB;solid-color:#000000;solid-opacity:1;fill:#99b000;fill-opacity:1;fill-rule:evenodd;stroke:none;stroke-width:18;stroke-linecap:butt;stroke-linejoin:miter;stroke-miterlimit:4;stroke-dasharray:none;stroke-dashoffset:0;stroke-opacity:1;color-rendering:auto;image-rendering:auto;shape-rendering:auto;text-rendering:auto;enable-background:accumulate"
       d="m 513.88477,472.76172 c -41.22715,-4.7e-4 -74.64856,33.70514 -74.64844,75.2832 0.0143,12.29974 3.01649,24.40862 8.74414,35.26758 L 364,673.41602 l 0,48.94531 49.98633,0 25.25,0 0,-24.08008 -4.67774,0 24.46289,-28.63281 5.74219,3.76758 24.59766,0 0,-25.125 -8.14063,-4.625 18.58399,-21.75 c 4.6385,0.9186 9.35303,1.39077 14.08008,1.41015 41.22563,-6.2e-4 74.64554,-33.70473 74.64648,-75.28125 1.2e-4,-41.57729 -33.4201,-75.28258 -74.64648,-75.2832 z m 23.53906,29.9082 c 13.56538,0 21.56233,9.69196 21.5625,23.49805 -1.7e-4,13.80609 -6.49712,21.99805 -20.0625,21.99805 -13.56538,0 -24.56233,-11.19196 -24.5625,-24.99805 1.7e-4,-13.80609 9.49712,-20.49805 23.0625,-20.49805 z"
       id="path4231"
       inkscape:connector-curvature="0"
       sodipodi:nodetypes="sccccccccccccccccsscscs" />
  </g>
</svg>
